tools/download-figma-icons/icons/outlined-large/book.svg

<svg width="65" height="64" viewBox="0 0 65 64" fill="none" xmlns="http://www.w3.org/2000/svg">
<path d="M32.04 52.8798C31.59 52.8798 31.14 52.7598 30.74 52.5198C29.27 51.6498 23.95 48.8198 17.28 48.8198C11.51 48.8198 6.26 50.8998 3.64 52.1398C2.85 52.5098 1.93 52.4598 1.19 51.9898C0.45 51.5198 0 50.7098 0 49.8298V9.66977C0 8.79977 0.43 7.99977 1.16 7.52977C3 6.31977 8.16 3.50977 16.23 3.50977C24.3 3.50977 29.64 6.08977 31.94 7.33977C33.97 6.06977 39.03 3.50977 46.73 3.50977C54.43 3.50977 60.58 6.28977 62.7 7.48977C63.5 7.93977 64 8.79977 64 9.71977V49.7198C64 50.6198 63.54 51.4398 62.77 51.9098C62 52.3698 61.07 52.3998 60.28 51.9898C58.02 50.8098 53.39 48.8198 47.78 48.8198C41.02 48.8198 34.92 51.7098 33.21 52.5998C32.84 52.7898 32.45 52.8898 32.05 52.8898L32.04 52.8798ZM17.28 45.8198C24.42 45.8198 30.17 48.7298 32.05 49.8198C34.18 48.7398 40.61 45.8198 47.78 45.8198C53.52 45.8198 58.32 47.6698 61 48.9898V9.98977C59.24 9.02977 53.92 6.51977 46.72 6.51977C39.52 6.51977 34.6 9.19977 33.33 10.0198C32.54 10.5398 31.53 10.5698 30.71 10.0998C29.21 9.25977 23.75 6.51977 16.22 6.51977C9.1 6.51977 4.5 8.96977 3 9.91977V49.1298C6.01 47.7698 11.37 45.8298 17.28 45.8298V45.8198Z" fill="black"/>
<path d="M62.5001 60.4798C62.2101 60.4798 61.9201 60.3998 61.6701 60.2298C61.6101 60.1898 55.6001 56.2598 47.7801 56.2598C41.0201 56.2598 34.9201 59.1498 33.2101 60.0398C32.4301 60.4398 31.5101 60.4198 30.7401 59.9698C29.2701 59.0998 23.9501 56.2698 17.2801 56.2698C9.39007 56.2698 2.32007 60.2498 2.25007 60.2898C1.53007 60.6998 0.620066 60.4498 0.200066 59.7298C-0.209934 59.0098 0.0400659 58.0998 0.760066 57.6798C1.08007 57.4998 8.57007 53.2598 17.2801 53.2598C24.4201 53.2598 30.1701 56.1698 32.0501 57.2598C34.1801 56.1798 40.6101 53.2598 47.7801 53.2598C56.5501 53.2598 63.0701 57.5498 63.3401 57.7298C64.0301 58.1898 64.2101 59.1198 63.7501 59.8098C63.4601 60.2398 62.9901 60.4798 62.5001 60.4798Z" fill="black"/>
<path d="M32 51.8496C31.17 51.8496 30.5 51.1796 30.5 50.3496V9.32959C30.5 8.49959 31.17 7.82959 32 7.82959C32.83 7.82959 33.5 8.49959 33.5 9.32959V50.3496C33.5 51.1796 32.83 51.8496 32 51.8496Z" fill="black"/>
<path d="M17.35 17.8099C17.04 17.8099 16.74 17.7299 16.46 17.5799C15.87 17.2499 15.5 16.6299 15.5 15.9499V5.37988H18.5V13.8799L19.53 13.2399C20.12 12.8699 20.89 12.8699 21.48 13.2399L22.5 13.8799V6.37988H25.5V15.9499C25.5 16.6299 25.13 17.2599 24.54 17.5799C23.95 17.8999 23.24 17.8799 22.67 17.5299L20.5 16.1699L18.33 17.5299C18.03 17.7199 17.69 17.8099 17.35 17.8099Z" fill="black"/>
</svg>

<svg width="65" height="64" viewBox="0 0 65 64" fill="none" xmlns="http://www.w3.org/2000/svg"><path d="M32.04 52.88c-.45 0-.9-.12-1.3-.36-1.47-.87-6.79-3.7-13.46-3.7-5.77 0-11.02 2.08-13.64 3.32-.79.37-1.71.32-2.45-.15A2.555 2.555 0 0 1 0 49.83V9.67C0 8.8.43 8 1.16 7.53c1.84-1.21 7-4.02 15.07-4.02s13.41 2.58 15.71 3.83c2.03-1.27 7.09-3.83 14.79-3.83 7.7 0 13.85 2.78 15.97 3.98.8.45 1.3 1.31 1.3 2.23v40c0 .9-.46 1.72-1.23 2.19-.77.46-1.7.49-2.49.08-2.26-1.18-6.89-3.17-12.5-3.17-6.76 0-12.86 2.89-14.57 3.78-.37.19-.76.29-1.16.29l-.01-.01Zm-14.76-7.06c7.14 0 12.89 2.91 14.77 4 2.13-1.08 8.56-4 15.73-4 5.74 0 10.54 1.85 13.22 3.17v-39c-1.76-.96-7.08-3.47-14.28-3.47-7.2 0-12.12 2.68-13.39 3.5-.79.52-1.8.55-2.62.08-1.5-.84-6.96-3.58-14.49-3.58C9.1 6.52 4.5 8.97 3 9.92v39.21c3.01-1.36 8.37-3.3 14.28-3.3v-.01ZM62.5 60.48c-.29 0-.58-.08-.83-.25-.06-.04-6.07-3.97-13.89-3.97-6.76 0-12.86 2.89-14.57 3.78-.78.4-1.7.38-2.47-.07-1.47-.87-6.79-3.7-13.46-3.7-7.89 0-14.96 3.98-15.03 4.02-.72.41-1.63.16-2.05-.56-.41-.72-.16-1.63.56-2.05.32-.18 7.81-4.42 16.52-4.42 7.14 0 12.89 2.91 14.77 4 2.13-1.08 8.56-4 15.73-4 8.77 0 15.29 4.29 15.56 4.47a1.505 1.505 0 0 1-.84 2.75Z" fill="currentColor"/><path d="M32 51.85c-.83 0-1.5-.67-1.5-1.5V9.33c0-.83.67-1.5 1.5-1.5s1.5.67 1.5 1.5v41.02c0 .83-.67 1.5-1.5 1.5ZM17.35 17.81c-.31 0-.61-.08-.89-.23-.59-.33-.96-.95-.96-1.63V5.38h3v8.5l1.03-.64c.59-.37 1.36-.37 1.95 0l1.02.64v-7.5h3v9.57c0 .68-.37 1.31-.96 1.63-.59.32-1.3.3-1.87-.05l-2.17-1.36-2.17 1.36c-.3.19-.64.28-.98.28Z" fill="currentColor"/></svg>
